To n_eck :ne :size 
	Repeat :ne 
	[ 
		Right ( 360 / :ne ) 
		Forward :size 
	] 
End 

To mn_eck :ne :size 
	Repeat :ne 
	[ 
		Right ( 360 / :ne ) 
		n_eck ( :ne , :size ) 
	] 
End 

Clear 
PenDown 
mn_eck ( 36 , 20 ) 
PenUp 
