To recursive_spiral :size 
	Ifelse ( :size < 30 ) 
	[ 
		Forward :size 
		Right 30 
		recursive_spiral ( ( ( :size * 110 ) / 100 ) ) 
	] 
	[ 
	] 
End 

Clear 
PenDown 
recursive_spiral ( 10 ) 
PenUp 
