To k :scale 
	PenDown 
	Forward ( 30 * :scale ) 
	PenUp 
	Back ( 10 * :scale ) 
	Right 45 
	Forward ( 14 * :scale ) 
	PenDown 
	Back ( 14 * :scale ) 
	PenUp 
	Right 90 
	Forward ( 14 * :scale ) 
	PenDown 
	Back ( 14 * :scale ) 
	PenUp 
	Right 45 
	Forward ( 20 * :scale ) 
	Left 180 
End 

Clear 
k ( 4 ) 
